!!!COA: des Prez, Josquin
!!!CDT: ~1450-1521/08/27
!!!COA2: Certon
!!!OTL: Quam dilecta tabernacula
!!!AGN: Motet
!!!SCT: NJE 18.6
!!!SCA: New Josquin Edition 18.6
!!!voices: 5
**kern	**kern	**kern	**kern	**kern
*part5	*part4	*part3	*part2	*part1
*staff5	*staff4	*staff3	*staff2	*staff1
*Ivox	*Ivox	*Ivox	*Ivox	*Ivox
*I"Bassus	*I"Quintus	*I"Tenor	*I"Altus	*I"Superius
*I'B	*I'Q	*I'T	*I'A	*I'S
*>[A,B]	*>[A,B]	*>[A,B]	*>[A,B]	*>[A,B]
*>A	*>A	*>A	*>A	*>A
*clefF4	*clefGv2	*clefGv2	*clefG2	*clefG2
*k[b-]	*k[b-]	*k[b-]	*k[b-]	*k[b-]
*d:	*d:	*d:	*d:	*d:
*M2/1	*M2/1	*M2/1	*M2/1	*M2/1
*met(C|)	*met(C|)	*met(C|)	*met(C|)	*met(C|)
!!section: Secunda pars: Memor fui dierum antiquorum
=1	=1	=1	=1	=1
0r	0r	1.c	0r	0r
.	.	2c	.	.
=2	=2	=2	=2	=2
0r	0r	1c	0r	0r
.	.	1d	.	.
=3	=3	=3	=3	=3
0r	0r	1.f	0r	1r
.	.	.	.	[1cc
.	.	2f	.	.
=4	=4	=4	=4	=4
0r	0r	2f	0r	2cc]
.	.	2f	.	2cc
.	.	2e	.	1cc
.	.	2e	.	.
=5	=5	=5	=5	=5
0r	0r	2d	1r	1dd
.	.	2.B-	.	.
.	.	.	[1f	[1ff
.	.	4A	.	.
.	.	4B-	.	.
.	.	4c	.	.
=6	=6	=6	=6	=6
0r	0r	2d	2f]	2ff]
.	.	2.B-	2f	2ff
.	.	.	1f	2ff
.	.	4A	.	.
.	.	2F	.	2ff
=7	=7	=7	=7	=7
0r	0r	1c	1g	2ee
.	.	.	.	2ee
.	.	2r	[1b-	2.dd
.	.	[2B-	.	.
.	.	.	.	4cc
=8	=8	=8	=8	=8
0r	0r	2B-]	2b-]	4dd
.	.	.	.	4ee
.	.	2B-	2b-	1ff
.	.	2d	2b-	.
.	.	2d	2b-	4ee
.	.	.	.	4dd
=9	=9	=9	=9	=9
1r	0r	1f	2a	[0cc
.	.	.	2a	.
[1C	.	2c	2g	.
.	.	[2c	2a	.
=10	=10	=10	=10	=10
2C]	0r	4c]	4g	0cc]
.	.	4B-	4f	.
2C	.	2A	1f	.
1C	.	1G	.	.
.	.	.	2e	.
=11	=11	=11	=11	=11
1D	0r	0F	2f	1.a
.	.	.	1f	.
[1F	.	.	.	.
.	.	.	2f	4g
.	.	.	.	4f
=12	=12	=12	=12	=12
2F]	1.c	0r	2a	1cc
2F	.	.	2a	.
2F	.	.	1cc	1a
2F	2c	.	.	.
=13	=13	=13	=13	=13
2E	1c	0r	2.g	0r
2E	.	.	.	.
.	.	.	4a	.
2D	1d	.	4b-	.
.	.	.	4a	.
[2BB-	.	.	[2b-	.
=14	=14	=14	=14	=14
2BB-]	1.f	1.F	2b-]	0r
2BB-	.	.	4a	.
.	.	.	4g	.
2D	.	.	2b-	.
2D	2f	2F	[2a	.
=15	=15	=15	=15	=15
1F	2f	2A	4a]	2r
.	.	.	4g	.
.	2f	2A	4a	1cc
.	.	.	4f	.
2C	2e	1c	[1g	.
[2c	2e	.	.	2cc
=16	=16	=16	=16	=16
2c]	1d	1G	0g]	2dd
2B-	.	.	.	2dd
2c	2r	1r	.	1ee
2C	[2c	.	.	.
=17	=17	=17	=17	=17
1F	2c]	1r	2r	2cc
.	2c	.	1f	1ff
1BB-	2d	[1F	.	.
.	2d	.	2f	4ee
.	.	.	.	4dd
=18	=18	=18	=18	=18
!	!LO:TX:a:t=Source&colon; e'	!	!	!
2r	1f	2F]	2a	1cc
1F	.	2F	1a	.
.	2c	2A	.	2r
2F	2f	2A	[2cc	[2cc
=19	=19	=19	=19	=19
2A	2e	2.c	4cc]	2cc]
.	.	.	4b-	.
1F	2f	.	1a	2cc
.	.	4B-	.	.
.	[1d	4A	.	2dd
.	.	4G	.	.
2G	.	2B-	2g	2dd
=20	=20	=20	=20	=20
1D	1d]	0A	2a	3%4ff
.	.	.	1f	.
[1F	[1c	.	.	.
.	.	.	.	3ee
.	.	.	2f	.
.	.	.	.	3dd
=21	=21	=21	=21	=21
2F]	1c]	2r	2a	2cc
2F	.	1c	1a	4a
.	.	.	.	4b-
2A	2r	.	.	4cc
.	.	.	.	4dd
2A	[2c	2c	[2cc	4ee
.	.	.	.	4dd
=22	=22	=22	=22	=22
1.c	2c]	2e	2cc]	4ee
.	.	.	.	4ff
.	2c	2e	2.g	2.gg
.	2e	1g	.	.
.	.	.	4a	4ff
[2G	2e	.	[2b-	[2ee
=23	=23	=23	=23	=23
4G]	4g	1d	2b-]	2ee]
4A	4f	.	.	.
2B-	4e	.	2g	1dd
.	4d	.	.	.
1A	1e	2r	2.a	.
.	.	[2A	.	2cc
.	.	.	4g	.
=24	=24	=24	=24	=24
0D	2r	2A]	4f	2dd
.	.	.	4e	.
.	1d	2A	2f	1ff
.	.	1B-	4f	.
.	.	.	4e	.
.	2d	.	4f	4ee
.	.	.	4g	4dd
=25	=25	=25	=25	=25
2r	1f	2.A	0a	0cc
1A	.	.	.	.
.	.	4B-	.	.
.	1e	4c	.	.
.	.	4d	.	.
2A	.	[2e	.	.
=26	=26	=26	=26	=26
1B-	2r	2e]	1r	0r
.	1f	1d	.	.
1A	.	.	1a	.
.	2e	2c	.	.
=27	=27	=27	=27	=27
2r	2f	2d	2a	0r
1d	2g	2G	2b-	.
.	1e	1A	[1a	.
2c	.	.	.	.
=28	=28	=28	=28	=28
2d	0f	1d	1a]	1r
2D	.	.	.	.
1F	.	2c	2r	2r
.	.	2A	[2a	[2dd
=29	=29	=29	=29	=29
1G	2r	1B-	2a]	2dd]
.	1d	.	2g	2dd
[1D	.	2A	2a	1ff
.	2d	[2d	2d	.
=30	=30	=30	=30	=30
0D]	1f	2d]	2a	1dd
.	.	2d	1a	.
.	2d	1f	.	2r
.	2d	.	2a	[2dd
=31	=31	=31	=31	=31
0r	2G	1e	2b-	2dd]
.	2A	.	2a	2cc
.	1B-	2r	4g	2dd
.	.	.	4f	.
.	.	[2d	4e	2g
.	.	.	4d	.
=32	=32	=32	=32	=32
0r	2A	2d]	1e	4a
.	.	.	.	4b-
.	2e	2c	.	4cc
.	.	.	.	4a
.	2f	2d	1r	2b-
.	2e	2A	.	2a
=33	=33	=33	=33	=33
0r	4g	1B-	2r	2r
.	4f	.	.	.
.	4e	.	2d	1dd
.	4d	.	.	.
.	2e	1A	1a	.
.	[2f	.	.	2cc
=34	=34	=34	=34	=34
2r	4f]	0r	2a	2dd
.	4e	.	.	.
2D	1d	.	2f	2ff
1A	.	.	1cc	1ee
.	2c	.	.	.
=35	=35	=35	=35	=35
2G	1d	2r	4b-	0r
.	.	.	4a	.
2F	.	2A	1a	.
2.B-	1r	1d	.	.
.	.	.	2g	.
4B-	.	.	.	.
=36	=36	=36	=36	=36
2A	1r	2c	[0a	0r
1d	.	1f	.	.
.	2r	.	.	.
2c	2A	2e	.	.
=37	=37	=37	=37	=37
2d	1d	2f	0a_	0r
2D	.	4e	.	.
.	.	4d	.	.
2.A	2d	2e	.	.
.	2c	2e	.	.
4G	.	.	.	.
=38	=38	=38	=38	=38
2F	0f	0d	0a]	2r
2.D	.	.	.	2a
.	.	.	.	1dd
4E	.	.	.	.
4F	.	.	.	.
4G	.	.	.	.
=39	=39	=39	=39	=39
1A	1e	2r	1r	2dd
.	.	1A	.	2cc
1D	1d	.	2r	2.ff
.	.	[2d	2d	.
.	.	.	.	8eeL
.	.	.	.	8ddJ
=40	=40	=40	=40	=40
0r	2r	2d]	1a	2ff
.	2A	2c	.	2.ee
.	1B-	2f	2a	.
.	.	.	.	4dd
.	.	4e	2g	[2dd
.	.	4d	.	.
=41	=41	=41	=41	=41
2r	1A	2e	2a	2dd]
2A	.	2e	2a	2cc
1B-	1r	2d	4f	1dd
.	.	.	4e	.
.	.	2d	4f	.
.	.	.	4g	.
=42	=42	=42	=42	=42
1.A	2r	2f	1a	1cc
.	2e	1e	.	.
.	1f	.	2r	1r
2F	.	2d	2a	.
=43	=43	=43	=43	=43
2G	2e	2d	2b-	2r
2A	2A	2c#Xi	1a	2ee
2D	4d	1d	.	1ff
.	4e	.	.	.
2d	4f	.	2f	.
.	4d	.	.	.
=44	=44	=44	=44	=44
2c	2e	0r	2g	2ee
2A	1f	.	2a	2cc
2B-	.	.	2d	2dd
2c	2e	.	2g	2ee
=45	=45	=45	=45	=45
2d	1f	2r	2f	1a
2D	.	1d	2d	.
2.A	1r	.	2e	1r
.	.	2c	[2f	.
4G	.	.	.	.
=46	=46	=46	=46	=46
2F	1r	2A	2f]	2r
2G	.	1B-	4e	1dd
.	.	.	4d	.
1E	2r	.	1e	.
.	2g	2c	.	2cc
=47	=47	=47	=47	=47
1D	2f	1d	2A	2a
.	2d	.	1d	2b-
1r	2e	1A	.	2.cc
.	[2f	.	2c	.
.	.	.	.	8b-/L
.	.	.	.	8a/J
=48	=48	=48	=48	=48
0r	2f]	2r	2A	2cc
.	4e	2d	2B-	2.b-
.	4d	.	.	.
.	2e	2c	1c	.
.	.	.	.	4a
.	[2f	2A	.	[2a
=49	=49	=49	=49	=49
1G	2f]	1B-	2.d	2a]
.	2B-	.	.	2g
.	.	.	4e	.
2F	2c	1A	4f	2a
.	.	.	4g	.
2D	2d	.	[2f	2dd
=50	=50	=50	=50	=50
2.F	0A	2r	4f]	2cc
.	.	.	4e	.
.	.	2d	4f	2a
4E	.	.	4g	.
4F	.	2c	[1a	2.cc
4G	.	.	.	.
[2A	.	2A	.	.
.	.	.	.	4dd
=51	=51	=51	=51	=51
2A]	2r	2c	2a]	2ee
2B-	2G	2d	2g	1dd
1A	1c	1e	1a	.
.	.	.	.	2cc#Xi
=52	=52	=52	=52	=52
1D	2A	0d	2f	[0dd
.	2.d	.	2.b-	.
2r	.	.	.	.
.	4c	.	4a	.
[2G	4B-	.	4g	.
.	4A	.	4f	.
=53	=53	=53	=53	=53
2G]	1B-	2r	1g	0dd]
2G	.	1d	.	.
1F	1A	.	1a	.
.	.	2d	.	.
=54	=54	=54	=54	=54
1E	1r	1c	0r	0r
[1D	[1d	1B-	.	.
=55	=55	=55	=55	=55
2D]	2d]	2A	1.a	0r
2D	2d	1f	.	.
1F	1c	.	.	.
.	.	2f	2a	.
=56	=56	=56	=56	=56
1G	1B-	1d	1g	1.dd
4D	2A	1d	1f	.
4E	.	.	.	.
4F	2A	.	.	2dd
4G	.	.	.	.
=57	=57	=57	=57	=57
4A	1c	1r	1e	1cc
4B-	.	.	.	.
4c	.	.	.	.
4A	.	.	.	.
4B-	1d	2r	2r	1b-
4c	.	.	.	.
[2d	.	2d	[2a	.
=58	=58	=58	=58	=58
2d]	2A	2f	2a]	1.a
2c	2e	2e	2cc	.
1d	1f	4d	2b-	.
.	.	4e	.	.
.	.	4f	[2a	2a
.	.	4g	.	.
=59	=59	=59	=59	=59
1A	1e	1a	4a]	1cc
.	.	.	4g	.
.	.	.	2e	.
1D	1d	2r	1f	1dd
.	.	2A	.	.
=60	=60	=60	=60	=60
0r	2r	2.c	1e	2a
.	2A	.	.	1cc
.	.	4d	.	.
.	2c	2e	1r	.
.	2d	2f	.	[2b-
=61	=61	=61	=61	=61
0r	4A	2e	2r	2b-]
.	4B-	.	.	.
.	4c	1f	2c	1a
.	4A	.	.	.
.	1B-	.	2d	.
.	.	4e	2d	2g
.	.	4d	.	.
=62	=62	=62	=62	=62
2r	1A	1c	1f	2a
2F	.	.	.	2a
2G	1r	2r	2e	2b-
2A	.	2c	[2f	2a
=63	=63	=63	=63	=63
1B-	0r	2d	4f]	1dd
.	.	.	4e	.
.	.	2d	4f	.
.	.	.	4g	.
2A	.	1f	[1a	[1cc
4F	.	.	.	.
4G	.	.	.	.
=64	=64	=64	=64	=64
4A	2r	1e	1a]	1cc]
4B-	.	.	.	.
4c	2c	.	.	.
4A	.	.	.	.
2B-	2d	1r	1g	1r
2c	2e	.	.	.
=65	=65	=65	=65	=65
2F	0f	0r	1cc	2r
2A	.	.	.	2cc
2B-	.	.	2b-	2dd
2F	.	.	2a	[2ff
=66	=66	=66	=66	=66
1c	1g	2r	1cc	2ff]
.	.	2c	.	2ee
[1F	[1f	2d	[1a	2ff
.	.	[2f	.	2cc
=67	=67	=67	=67	=67
0F]	1f]	4f]	0a]	2dd
.	.	4e	.	.
.	.	2d	.	2.ff
.	2r	2c	.	.
.	.	.	.	4ee
.	2F	2A	.	4dd
.	.	.	.	4cc
=68	=68	=68	=68	=68
0r	2G	2B-	1r	2.b-
.	2B-	2.c	.	.
.	.	.	.	4a
.	2B-	.	2r	4g
.	.	4c	.	4f
.	2A	[2c	2f	[2f
=69	=69	=69	=69	=69
1r	1G	2c]	2g	2f]
.	.	2B-	2b-	2e
2r	2F	1c	2b-	1f
2F	2f	.	2a	.
=70	=70	=70	=70	=70
2G	2e	0r	2g	1r
2B-	2d	.	4f	.
.	.	.	4e	.
2B-	1f	.	4d	2r
.	.	.	4c	.
2A	.	.	[2f	2f
=71	=71	=71	=71	=71
1G	2.B-	0r	2f]	2g
.	.	.	2e	2b-
.	4c	.	.	.
1F	4d	.	1f	2b-
.	4c	.	.	.
.	[2f	.	.	2a
=72	=72	=72	=72	=72
0r	2f]	2r	1c	1g
.	2e	2c	.	.
.	1f	2d	2.f	4f
.	.	.	.	4g
.	.	2f	.	4a
.	.	.	4g	4b-
=73	=73	=73	=73	=73
0r	0r	2f	4a	4cc
.	.	.	4b-	4dd
.	.	2e	2cc	4ee
.	.	.	.	4cc
.	.	1d	4b-	4dd
.	.	.	4a	4ee
.	.	.	4g	[2ff
.	.	.	4f	.
=74	=74	=74	=74	=74
1r	2r	1c	1g	2ff]
.	2.c	.	.	2ee
2r	.	[1F	1f	[1ff
.	4c	.	.	.
[2F	2c	.	.	.
=75	=75	=75	=75	=75
4F]	2A	1F]	2r	0ff]
4F	.	.	.	.
2F	2c	.	2.f	.
2D	2d	1r	.	.
.	.	.	4f	.
2F	2c	.	2f	.
=76	=76	=76	=76	=76
2G	2B-	0r	2d	1r
2F	1f	.	2f	.
2B-	.	.	1g	2r
2c	2e	.	.	[2cc
=77	=77	=77	=77	=77
2F	1f	1r	[0a	4cc]
.	.	.	.	4cc
2.F	.	.	.	2cc
.	1c	2r	.	2a
4F	.	.	.	.
2F	.	[2f	.	2cc
=78	=78	=78	=78	=78
2D	0r	4f]	1a]	2dd
.	.	4f	.	.
2F	.	2f	.	2cc
2G	.	2d	1r	2r
2F	.	2f	.	[2ff
=79	=79	=79	=79	=79
2B-	2r	1g	1r	2ff]
2c	2.c	.	.	2ee
[1F	.	[1f	2.cc	[1ff
.	4c	.	.	.
.	2c	.	.	.
.	.	.	4cc	.
=80	=80	=80	=80	=80
1F]	2A	1f]	2cc	1ff]
.	2c	.	2a	.
1r	2d	1B-	1b-	1dd
.	[2f	.	.	.
=81	=81	=81	=81	=81
0r	2f]	1c	2g	2cc
.	2e	.	1a	1cc
.	1d	2F	.	.
.	.	2G	4g	2b-
.	.	.	4f	.
=82	=82	=82	=82	=82
2r	4c	0A	2e	2cc
.	4B-	.	.	.
1D	4A	.	2.f	2dd
.	4G	.	.	.
!	!	!	!	!LO:TX:a:t=Source&colon; b'
.	1F	.	.	2a
.	.	.	4e	.
2D	.	.	[2a	[2ff
=83	=83	=83	=83	=83
2D	1r	1B-	2a]	2ff]
2E	.	.	2g	4ee
.	.	.	.	4dd
2.F	2r	2A	[1a	2cc
.	[2A	[2d	.	[2ff
4E	.	.	.	.
=84	=84	=84	=84	=84
4D	2A]	2d]	1a]	4ff]
4C	.	.	.	4ee
1D	2A	2d	.	2.dd
.	2A	2.d	1r	.
.	.	.	.	4cc
[2G	2B-	.	.	[2b-
.	.	4e	.	.
=85	=85	=85	=85	=85
2G]	1c	2f	1r	2b-]
2F	.	2f	.	1a
1G	1B-	4d	2r	.
.	.	4c	.	.
.	.	4d	[2d	2g
.	.	4e	.	.
=86	=86	=86	=86	=86
1D	2A	4f	2d]	1a
.	.	4g	.	.
.	1f	1a	2d	.
1G	.	.	2d	1r
.	[2e	2g	2e	.
=87	=87	=87	=87	=87
2F	2e]	1a	1f	2r
2D	1d	.	.	1a
1A	.	2r	1e	.
.	2c	[2A	.	2a
=88	=88	=88	=88	=88
1D	2d	2A]	2d	2.a
.	2d	2A	2f	.
.	.	.	.	4b-
1r	2c	2A	2e	2cc
.	2d	2B-	2d	[2b-
=89	=89	=89	=89	=89
0r	1A	1c	2e	2b-]
.	.	.	1f	1a
.	2r	1B-	.	.
.	2d	.	4e	2g
.	.	.	4d	.
=90	=90	=90	=90	=90
2r	2f	1A	2c	0a
2D	2f	.	2d	.
2F	2c	2r	2A	.
2F	[2f	2A	[2a	.
=91	=91	=91	=91	=91
1C	2f]	2c	2a]	1r
.	1e	2c	2g	.
1D	.	1F	1f	2r
.	[2d	.	.	2a
=92	=92	=92	=92	=92
2AA	2d]	1r	1e	2cc
2A	2c	.	.	2cc
2B-	2d	2r	1d	2.f
2B-	[2f	2d	.	.
.	.	.	.	4g
=93	=93	=93	=93	=93
1F	4f]	2f	2r	4a
.	4g	.	.	4b-
.	4a	2f	2a	4cc
.	4f	.	.	4dd
1r	2g	1c	2cc	4ee
.	.	.	.	4ff
.	[2a	.	2cc	[2ee
=94	=94	=94	=94	=94
1r	2a]	1d	2.f	2ee]
.	4g	.	.	1dd
.	4f	.	4g	.
2r	1e	1A	4a	.
.	.	.	4b-	.
2A	.	.	[2a	2cc#Xi
=95	=95	=95	=95	=95
2B-	2r	0r	2a]	1dd
2B-	2d	.	2g	.
1F	2f	.	1a	1r
.	2f	.	.	.
=96	=96	=96	=96	=96
1G	4B-	1r	2b-	2r
.	4A	.	.	.
.	4B-	.	2b-	2dd
.	4c	.	.	.
1D	2d	2r	4f	2ff
.	.	.	4e	.
.	2B-	2d	4f	2ff
.	.	.	4g	.
=97	=97	=97	=97	=97
1r	2A	2f	2a	2cc
.	2d	2f	1b-	1dd
2r	2e	1c	.	.
2A	[2f	.	[2a	[2cc
=98	=98	=98	=98	=98
2B-	2f]	1d	2a]	2cc]
2B-	4e	.	2g	1b-
.	4d	.	.	.
1F	1f	2A	1a	.
.	.	2c	.	[2a
=99	=99	=99	=99	=99
1G	1d	1B-	2r	4a]
.	.	.	.	4g
.	.	.	2d	2g
1D	2r	[1Al	2f	[1al
.	2d	.	2f	.
=100	=100	=100	=100	=100
2r	2f	0A_	2c	0a_
2D	2f	.	2d	.
2F	2.c	.	2A	.
2F	.	.	[2a	.
.	4d	.	.	.
=101	=101	=101	=101	=101
1C	4e	0A_	4a]	0a_
.	4f	.	4g	.
.	2.e	.	4f	.
.	.	.	4e	.
1D	.	.	1f	.
.	4d	.	.	.
.	[2d	.	.	.
=102	=102	=102	=102	=102
[0AAl	2d]	0A_	[0el	0a_
.	4c	.	.	.
.	4B-	.	.	.
.	2.c	.	.	.
.	4d	.	.	.
=103	=103	=103	=103	=103
0AA]	0cl	0A]	0e]	0a]
!!LO:LB:i:g=z
=||	=||	=||	=||	=||
*>B	*>B	*>B	*>B	*>B
*clefF4	*clefGv2	*clefGv2	*clefG2	*clefG2
*k[b-]	*k[b-]	*k[b-]	*k[b-]	*k[b-]
*M2/1	*M2/1	*M2/1	*M2/1	*M2/1
*met(C|)	*met(C|)	*met(C|)	*met(C|)	*met(C|)
!!section: Secunda pars: Memor fui dierum antiquorum
!!!OMD: Secunda pars: Memor fui dierum antiquorum
0r	0r	1r	0a	1a
.	.	1A	.	2.cc
.	.	.	.	4dd
=104	=104	=104	=104	=104
0r	0r	2c	1a	2ee
.	.	2d	.	1ff
.	.	1B-	1d	.
.	.	.	.	4ee
.	.	.	.	4dd
=105	=105	=105	=105	=105
0A	2r	1A	0a	1cc
.	2A	.	.	.
.	2.c	1r	.	2r
.	.	.	.	2a
.	4d	.	.	.
=106	=106	=106	=106	=106
1A	2e	1r	1r	1cc
.	1f	.	.	.
1D	.	2r	[1a	1dd
.	4e	2A	.	.
.	4d	.	.	.
=107	=107	=107	=107	=107
0A	0c	2A	1a]	2.ee
.	.	2A	.	.
.	.	.	.	4dd
.	.	2c	1a	2ee
.	.	2A	.	[2ff
=108	=108	=108	=108	=108
0r	0r	1B-	1d	2ff]
.	.	.	.	4ee
.	.	.	.	4dd
.	.	[1A	2a	[1cc
.	.	.	2e	.
=109	=109	=109	=109	=109
2r	0a	1A]	2e	0cc_
2A	.	.	2e	.
2A	.	1r	1f	.
2A	.	.	.	.
=110	=110	=110	=110	=110
2c	1a	0r	2e	1cc]
2A	.	.	1a	.
1B-	1d	.	.	1r
.	.	.	2g	.
=111	=111	=111	=111	=111
[0A	4a	1r	2f	2r
.	4g	.	.	.
.	4f	.	4e	2a
.	4e	.	4d	.
.	1f	2r	1c	2a
.	.	2A	.	2a
=112	=112	=112	=112	=112
0A_	2e	2A	2a	2.cc
.	2A	2A	2a	.
.	.	.	.	4dd
.	2A	2.c	2a	4ee
.	.	.	.	4cc
.	2A	.	[2cc	2ff
.	.	4d	.	.
=113	=113	=113	=113	=113
0A]	2c	2e	2cc]	2ee
.	2d	2f	2a	1dd
.	2e	1e	1a	.
.	2c	.	.	2cc#Xi
=114	=114	=114	=114	=114
[0D	2.f	1d	1a	1dd
.	4e	.	.	.
.	4d	1r	2a	2r
.	4c	.	.	.
.	2d	.	[2f	[2a
=115	=115	=115	=115	=115
1D]	2A	1r	2f]	2a]
.	1d	.	4e	2f
.	.	.	4d	.
1r	.	2r	2f	1b-
.	2G	[2d	2g	.
=116	=116	=116	=116	=116
2r	1A	2d]	1e	2a
1A	.	2c	.	2a
.	1r	1f	1A	2a
2F	.	.	.	2a
=117	=117	=117	=117	=117
1B-	1r	1d	2r	2f
.	.	.	1d	2g
1A	2r	2r	.	4a
.	.	.	.	4g
.	[2A	2a	2c	4a
.	.	.	.	4b-
=118	=118	=118	=118	=118
0r	2A]	2a	1f	1cc
.	2F	2a	.	.
.	1B-	2f	1d	2r
.	.	2g	.	[2dd
=119	=119	=119	=119	=119
2r	1A	2.a	2r	2dd]
1A	.	.	2a	2cc
.	.	4g	.	.
.	2r	4f	2a	1ff
.	.	4e	.	.
2F	2d	[2f	2a	.
=120	=120	=120	=120	=120
1B-	2d	2f]	2f	1dd
.	2d	4e	2g	.
.	.	4d	.	.
1A	2c	1e	2.a	2r
.	2c	.	.	[2a
.	.	.	4g	.
=121	=121	=121	=121	=121
2r	2.d	1d	4f	2a]
.	.	.	4e	.
1d	.	.	2f	2a
.	4e	.	.	.
.	4f	1r	2d	1a
.	4g	.	.	.
2d	[2a	.	[2f	.
=122	=122	=122	=122	=122
2d	2a]	0r	2f]	2f
2B-	1g	.	4e	2g
.	.	.	4d	.
2c	.	.	2e	1a
2d	2f	.	[2d	.
=123	=123	=123	=123	=123
2r	2g	1G	2d]	1b-
2G	2d	.	2.g	.
2G	2e	2c	.	1a
.	.	.	4e	.
2F	2f	2A	[2a	.
=124	=124	=124	=124	=124
2G	1d	1B-	2a]	2r
2G	.	.	2g	2dd
2D	2r	1A	2.a	1ff
2D	[2d	.	.	.
.	.	.	8gL	.
.	.	.	8aJ	.
=125	=125	=125	=125	=125
2G	2d]	2r	1b-	2dd
2E	1g	2G	.	1ee
1F	.	2c	1a	.
.	2f	2A	.	[2dd
=126	=126	=126	=126	=126
2G	1e	2B-	2r	2dd]
2A	.	1A	2c	2cc#Xi
2D	1d	.	2d	1dd
[2d	.	2F	2d	.
=127	=127	=127	=127	=127
2d]	2r	2G	1e	1r
2c	2c	2A	.	.
2B-	2f	4B-	1d	2r
.	.	4G	.	.
2B-	2d	[2d	.	2g
=128	=128	=128	=128	=128
1A	1e	2d]	2r	1cc
.	.	2c	1a	.
2r	1d	2d	.	2a
[2d	.	2G	2g	[2b-
=129	=129	=129	=129	=129
2d]	1r	1A	2f	2b-]
2c	.	.	2e	1a
2B-	2r	2r	1d	.
2B-	2g	[2d	.	2g
=130	=130	=130	=130	=130
1A	2f	2d]	2r	1a
.	2e	2c	1a	.
2.D	1d	2B-	.	2r
.	.	2B-	2f	[2ff
4E	.	.	.	.
=131	=131	=131	=131	=131
2F	1c	0A	1.a	2ff]
2C	.	.	.	2ee
1D	1f	.	.	2dd
.	.	.	2a	2dd
=	=	=	=	=
*M3/1	*M3/1	*M3/1	*M3/1	*M3/1
*met(C|3)	*met(C|3)	*met(C|3)	*met(C|3)	*met(C|3)
0A	0e	1r	0a	0cc
.	.	0A	.	.
1r	1r	.	1r	1r
=132	=132	=132	=132	=132
0D	0d	1A	0a	0ff
.	.	1A	.	.
1D	1d	1B-	1f	1ff
=133	=133	=133	=133	=133
1D	1d	1A	0a	1dd
0G	0d	1.B-	.	0dd
.	.	.	1g	.
.	.	2B-	.	.
=134	=134	=134	=134	=134
1D	1f	[0.A	1a	1dd
1.A	1.e	.	1.a	1.cc
2D	2d	.	2f	2a
=135	=135	=135	=135	=135
1D	0.d	0A]	0f	1a
1F	.	.	.	0dd
1G	.	1r	1r	.
=136	=136	=136	=136	=136
1A	0.r	1c	1r	1cc
1B-	.	1d	1f	0b-
1G	.	1e	1g	.
=137	=137	=137	=137	=137
1F	1c	0f	1a	0a
1D	1d	.	1f	.
1G	1e	1B-	1g	1r
=138	=138	=138	=138	=138
1F	1.f	1c	0a	0.r
0B-	.	0d	.	.
.	2e	.	.	.
.	1d	.	1g	.
=139	=139	=139	=139	=139
1.A	1c	1e	1a	1cc
.	2F	0f	0a	1cc
2G	2G	.	.	.
1F	2A	.	.	1dd
.	2B-	.	.	.
=140	=140	=140	=140	=140
1E	0c	1r	1g	1ee
0D	.	1F	1f	0ff
.	1B-	1F	1d	.
=141	=141	=141	=141	=141
0C	1c	1G	0e	0ee
.	1c	1.A	.	.
1F	1c	.	1r	1r
.	.	2G	.	.
=142	=142	=142	=142	=142
1F	1d	1A	0.r	0.r
1G	1.e	1B-	.	.
[1A	.	[1c	.	.
.	2d	.	.	.
=143	=143	=143	=143	=143
2A]	1e	1c]	1c	0.r
2G	.	.	.	.
1A	1f	1F	1c	.
1B-	[1g	1r	1d	.
=144	=144	=144	=144	=144
1c	2g]	0.r	1e	1cc
.	4f	.	.	.
.	4g	.	.	.
0F	1a	.	1f	1cc
.	1f	.	1a	1dd
=145	=145	=145	=145	=145
1E	1g	1r	1g	1ee
1D	0a	1F	2f	0ff
.	.	.	2g	.
1F	.	1F	2a	.
.	.	.	2b-	.
=146	=146	=146	=146	=146
0C	0g	1.G	2cc	0.ee
.	.	.	2g	.
.	.	.	1.cc	.
.	.	2F	.	.
1C	1c	1G	.	.
.	.	.	2b-	.
=147	=147	=147	=147	=147
1C	1e	1A	0a	0.r
1D	1d	0B-	.	.
1E	[1g	.	1g	.
=148	=148	=148	=148	=148
1.F	2g]	[0.A	[0.a	1cc
.	2f	.	.	.
.	0f	.	.	1cc
2E	.	.	.	.
1D	.	.	.	1dd
=149	=149	=149	=149	=149
1C	1e	0.A]	0.a]	1ee
0D	0d	.	.	0ff
=	=	=	=	=
*M2/1	*M2/1	*M2/1	*M2/1	*M2/1
*met(C|)	*met(C|)	*met(C|)	*met(C|)	*met(C|)
1A	1.c	1r	[0a	1.ee
1r	.	[1e	.	.
.	4B-	.	.	4dd
.	4A	.	.	4cc
=150	=150	=150	=150	=150
1.A	1A	2e]	1a]	0cc
.	.	2e	.	.
.	1r	1c	2r	.
2A	.	.	[2a	.
=151	=151	=151	=151	=151
1F	0r	1d	2a]	1r
.	.	.	2a	.
1G	.	2r	4g	[1ee
.	.	.	4f	.
.	.	2e	4e	.
.	.	.	4d	.
=152	=152	=152	=152	=152
2r	1.a	2e	0c	2ee]
2A	.	2e	.	2ee
2A	.	2f	.	1cc
2A	2a	2e	.	.
=153	=153	=153	=153	=153
2B-	1f	1d	0r	1dd
2d	.	.	.	.
1c	1g	1r	.	2r
.	.	.	.	2ee
=154	=154	=154	=154	=154
1A	2r	2r	1.a	2ee
.	2c	2A	.	2ee
1r	2c	2A	.	2ff
.	2c	2A	2a	2ee
=155	=155	=155	=155	=155
0r	2d	2B-	1f	2dd
.	1f	2d	.	2b-
.	.	2c	1g	1cc
.	2e	2c	.	.
=156	=156	=156	=156	=156
0r	1f	1.f	2r	2a
.	.	.	2a	2f
.	1F	.	2a	2cc
.	.	2f	2a	2cc
=157	=157	=157	=157	=157
2r	1r	2d	4b-	2dd
.	.	.	4a	.
2F	.	1c	4g	1ff
.	.	.	4f	.
2c	2r	.	2g	.
2c	2c	[2g	[2cc	2ee
=158	=158	=158	=158	=158
1d	2f	4g]	2cc]	1ff
.	.	4f	.	.
.	2f	1f	2b-	.
1c	2g	.	2cc	2r
.	[2a	2e	2c	2cc
=159	=159	=159	=159	=159
1F	4a]	2f	2f	2a
.	4g	.	.	.
.	1f	2F	2f	2.dd
1r	.	2c	1g	.
.	.	.	.	4cc
.	2e	2c	.	[2cc
=160	=160	=160	=160	=160
1BB-	0f	1d	1f	2cc]
.	.	.	.	2b-
2F	.	2c	2r	4a
.	.	.	.	4g
2F	.	2A	2c	[2cc
=161	=161	=161	=161	=161
1G	1d	2.B-	2g	2cc]
.	.	.	2.g	2b-
.	.	4A	.	.
2E	[1c	2G	.	1cc
.	.	.	4f	.
2F	.	2A	[2f	.
=162	=162	=162	=162	=162
1C	1c]	1G	2f]	2r
.	.	.	2e	2.cc
1F	2r	[1F	[1f	.
.	.	.	.	4cc
.	[2c	.	.	2cc
=163	=163	=163	=163	=163
2r	4c]	0F_	1f]	2a
.	4c	.	.	.
2.F	2c	.	.	2cc
.	2A	.	2r	2dd
4F	.	.	.	.
2F	2c	.	[2f	2cc
=164	=164	=164	=164	=164
2D	2d	1F]	4f]	0r
.	.	.	4f	.
2F	2c	.	2f	.
2G	2B-	1r	2d	.
2F	[2f	.	2f	.
=165	=165	=165	=165	=165
2B-	2f]	0r	1g	2r
2c	2e	.	.	2.cc
2F	1f	.	[1a	.
.	.	.	.	4cc
[2F	.	.	.	2cc
=166	=166	=166	=166	=166
4F]	1c	2r	0a]	2a
4F	.	.	.	.
2F	.	2.f	.	2cc
2D	1r	.	.	2dd
.	.	4f	.	.
2F	.	2f	.	2cc
=167	=167	=167	=167	=167
2G	1r	2d	0r	2r
2F	.	2f	.	1ff
2B-	2r	1g	.	.
2c	[2c	.	.	2ee
=168	=168	=168	=168	=168
0F	4c]	0f	2.cc	0ff
.	4c	.	.	.
.	2c	.	.	.
.	.	.	4cc	.
.	2A	.	2cc	.
.	2c	.	2a	.
=169	=169	=169	=169	=169
0r	2d	1B-	1b-	1dd
.	1f	.	.	.
.	.	1c	2g	2cc
.	2e	.	[2a	[2cc
=170	=170	=170	=170	=170
1r	1d	2F	2a]	2cc]
.	.	2G	4g	2b-
.	.	.	4f	.
2r	4c	[1A	2e	2cc
.	4B-	.	.	.
[2D	4A	.	[2f	2dd
.	4G	.	.	.
=171	=171	=171	=171	=171
2D]	1F	1A]	4f]	2a
.	.	.	4e	.
2D	.	.	1a	1ff
2D	1r	1B-	.	.
2E	.	.	2g	4ee
.	.	.	.	4dd
=172	=172	=172	=172	=172
2.F	2r	2A	0a	2cc
.	1A	1d	.	2.ff
4E	.	.	.	.
4D	.	.	.	.
4C	.	.	.	4ee
[2D	2A	2d	.	[2dd
=173	=173	=173	=173	=173
2D]	2A	2.d	0r	4dd]
.	.	.	.	4cc
1G	2B-	.	.	1b-
.	.	4e	.	.
.	1c	2f	.	.
2F	.	2f	.	[2a
=174	=174	=174	=174	=174
1G	1B-	4d	2r	2a]
.	.	4c	.	.
.	.	4d	1d	2g
.	.	4e	.	.
1D	2A	4f	.	1a
.	.	4g	.	.
.	[2f	[2a	2d	.
=175	=175	=175	=175	=175
1G	4f]	2a]	2d	1r
.	4e	.	.	.
.	1e	2g	2e	.
2F	.	1a	1f	2r
2D	[2d	.	.	[2a
=176	=176	=176	=176	=176
1A	2d]	2r	1e	2a]
.	2c#Xi	1A	.	2a
1D	2d	.	2d	2.a
.	2d	2A	2f	.
.	.	.	.	4b-
=177	=177	=177	=177	=177
0r	2c	2A	2e	2cc
.	2d	2B-	2d	1b-
.	1A	1c	2e	.
.	.	.	[2f	[2a
=178	=178	=178	=178	=178
1r	2r	1B-	2f]	2a]
.	2d	.	4e	2g
.	.	.	4d	.
2r	2f	1A	2c	[1a
2D	2f	.	2d	.
=179	=179	=179	=179	=179
2F	2c	2r	2A	1a]
2F	1f	2A	1a	.
1C	.	2c	.	1r
.	[2e	2c	2g	.
=180	=180	=180	=180	=180
1D	2e]	1F	2f	2r
.	1d	.	4e	2a
.	.	.	4d	.
2AA	.	1r	1e	2cc
2A	2c#Xi	.	.	2cc
=181	=181	=181	=181	=181
2B-	2d	2r	1d	2.f
2B-	2.f	2d	.	.
.	.	.	.	4g
1F	.	2f	2r	4a
.	4g	.	.	4b-
.	4a	2f	2a	4cc
.	4f	.	.	4dd
=182	=182	=182	=182	=182
0r	2g	1c	2cc	4ee
.	.	.	.	4ff
.	1a	.	2cc	1ee
.	.	1d	2.f	.
.	4g	.	.	[2dd
.	4f	.	4g	.
=183	=183	=183	=183	=183
2r	1e	1A	4a	2dd]
.	.	.	4b-	.
2A	.	.	1a	2cc#Xi
2B-	2r	1r	.	1dd
2B-	2d	.	2g	.
=184	=184	=184	=184	=184
1F	2f	0r	2a	1r
.	2f	.	2a	.
1G	4c	.	2b-	2r
.	4A	.	.	.
.	4B-	.	2b-	2dd
.	4c	.	.	.
=185	=185	=185	=185	=185
1D	2d	2r	4f	2ff
.	.	.	4e	.
.	2B-	2d	4f	2ff
.	.	.	4g	.
1r	2A	2f	2a	2cc
.	2d	2f	[2b-	[2dd
=186	=186	=186	=186	=186
2r	2e	1c	2b-]	2dd]
2A	1f	.	1a	1cc
2B-	.	1d	.	.
2B-	4e	.	2g	[2b-
.	4d	.	.	.
=187	=187	=187	=187	=187
1F	1f	2A	1a	4b-]
.	.	.	.	4a
.	.	2c	.	1a
1G	1d	1B-	2r	.
.	.	.	2d	2g
=188	=188	=188	=188	=188
1D	2r	[0Al	2f	[0al
.	2d	.	2f	.
2r	2f	.	2c	.
2D	2f	.	2d	.
=189	=189	=189	=189	=189
2F	2.c	0A_	2A	0a_
2F	.	.	2.a	.
.	4d	.	.	.
1C	4e	.	.	.
.	4f	.	4g	.
.	[2e	.	4f	.
.	.	.	4e	.
=190	=190	=190	=190	=190
1D	4e]	0A_	1f	0a_
.	4d	.	.	.
.	1d	.	.	.
[1AAl	.	.	[1el	.
.	4c	.	.	.
.	4B-	.	.	.
=191	=191	=191	=191	=191
0AA]	2.c	0A]	0e]	0a]
.	4d	.	.	.
.	1cl	.	.	.
==	==	==	==	==
*-	*-	*-	*-	*-
!!!RDF**kern: l=long note in original notation
!!!system-decoration: s1,s2,s3,s4,s5
!!!RDF**kern: i = editorial accidental
!!!ENC: Jesse Rodin
!!!END: 2020/10/21
!!!EED: Jesse Rodin
!!!EEV: 2020/10/23
!!attribution-level@Jos: 4b (almost certainly by another composer [double question mark])
!!!ONB: Translated from MusicXML and edited on 2021/03/25 by Craig Sapp
!!muse2ps: C^probably by Certon\n@{SCT}^i2I150v85,85,85,85,150c110
